X: 1
T: Flynn's First
R: reel
M: 4/4
L: 1/8
K: Emin
|:E2GE FGAF|G~d3 BAGF|G2 BG AGFD|EFGE FEDF|
E2GE FGAF|G~d3 BAGF|G2 BG AGFD|EGFD E4:|EF|
|:G~E3 F2EF|G2 de fdef|gfeg fdAF|GBAF E2FD|
E2GE FGAF|G~d3 BAGF|G2 BG AGFD|EGFD E2 EF:|E4|

